X: 41
T: No_47_Willow-Dance_Song.krn
N: Derived from No_47_Willow-Dance_Song.krn
%%abc-version 2.0
%%abcx-abcm2ps-target-version 5.9.1 (29 Sep 2008)
%%abc-creator hum2abc beta
%%abcx-conversion-date 2019/03/15 08:27:55
%%humdrum-veritas 3217993800
%%humdrum-veritas-data 98949848
%%linebreak <none>
%%barnumbers 0
L: 1/8
M: 2/4
K: Ab clef=bass
[K:clef=bass][M:2/4]FCC2 [I:setbarnb 2]| 
F2F2 | 
FCC2 | 
C=B, C=A, | 
CCC2 | 
C=A, CA, | 
C=B,C2 | 
CCC2 | 
C/A,3/-A,2 | 
A,2A,F, | 
A,2A,2 | 
A,F,F,2 | 
F,2F, z | 
A,2A,2 | 
A,F,F,2 | 
F,2F,C, | 
F,2F,2 | 
A,F, F, z | 
F,2F,2 | 
F,C, F, z :|]  



